actions/24/amarok_cart_view.svg

<svg width="24" height="24" version="1.1" viewBox="0 0 24 24" xmlns="http://www.w3.org/2000/svg">
 <defs>
  <style id="current-color-scheme" type="text/css">.ColorScheme-Text {
        color:#cccccc;
      }</style>
 </defs>
 <path class="ColorScheme-Text" d="m12 4c-1.6569 0-3 1.3431-3 3h-2c-1.108 0-2 0.892-2 2v9c0 1.108 0.892 2 2 2h10c1.108 0 2-0.892 2-2v-9c0-1.108-0.892-2-2-2h-2c0-1.6569-1.3431-3-3-3zm0 1c1.1046 0 2 0.89543 2 2h-4c0-1.1046 0.89543-2 2-2zm-5 3h2v1.0879c-0.59859 0.21163-0.99911 0.77721-1 1.4121 0 0.82843 0.67157 1.5 1.5 1.5s1.5-0.67157 1.5-1.5c-8.91e-4 -0.6349-0.40141-1.2005-1-1.4121v-1.0879h4v1.0879c-0.59859 0.21163-0.99911 0.77721-1 1.4121 0 0.82843 0.67157 1.5 1.5 1.5s1.5-0.67157 1.5-1.5c-8.91e-4 -0.6349-0.40141-1.2005-1-1.4121v-1.0879h2c0.554 0 1 0.446 1 1v9c0 0.554-0.446 1-1 1h-10c-0.554 0-1-0.446-1-1v-9c0-0.554 0.446-1 1-1zm2.5 2c0.27614 0 0.5 0.22386 0.5 0.5s-0.22386 0.5-0.5 0.5-0.5-0.22386-0.5-0.5 0.22386-0.5 0.5-0.5zm5 0c0.27614 0 0.5 0.22386 0.5 0.5s-0.22386 0.5-0.5 0.5-0.5-0.22386-0.5-0.5 0.22386-0.5 0.5-0.5z" fill="currentColor"/>
</svg>

<svg xmlns="http://www.w3.org/2000/svg" viewBox="0 0 24 24">
  <defs id="defs3051">
    <style type="text/css" id="current-color-scheme">
      .ColorScheme-Text {
        color:#dedede;
      }
      </style>
  </defs>
 <path style="fill:currentColor;fill-opacity:1;stroke:none" 
     d="M 12 4 A 3 3 0 0 0 9 7 L 6 7 L 6 8 L 6 19 L 6 20 L 18 20 L 18 19 L 18 8 L 18 7 L 15 7 A 3 3 0 0 0 12 4 z M 12 5 A 2 2 0 0 1 14 7 L 10 7 A 2 2 0 0 1 12 5 z M 7 8 L 9 8 L 9 9.0878906 A 1.5 1.5 0 0 0 8 10.5 A 1.5 1.5 0 0 0 9.5 12 A 1.5 1.5 0 0 0 11 10.5 A 1.5 1.5 0 0 0 10 9.0878906 L 10 8 L 14 8 L 14 9.0878906 A 1.5 1.5 0 0 0 13 10.5 A 1.5 1.5 0 0 0 14.5 12 A 1.5 1.5 0 0 0 16 10.5 A 1.5 1.5 0 0 0 15 9.0878906 L 15 8 L 17 8 L 17 19 L 7 19 L 7 8 z M 9.5 10 A 0.5 0.5 0 0 1 10 10.5 A 0.5 0.5 0 0 1 9.5 11 A 0.5 0.5 0 0 1 9 10.5 A 0.5 0.5 0 0 1 9.5 10 z M 14.5 10 A 0.5 0.5 0 0 1 15 10.5 A 0.5 0.5 0 0 1 14.5 11 A 0.5 0.5 0 0 1 14 10.5 A 0.5 0.5 0 0 1 14.5 10 z "
     class="ColorScheme-Text"
     />
</svg>
